X:84
T:Quadrill from Watson’s Book. CJF.084
R:Quadrille
S:C.J.Fox MS, 1829/33, Beverley,E.Yorks.
B:Kidson Coll.Mitchell Lib.M1805
O:England
A:East Yorkshire
Z:vmp.P J Headford 2000 & 2008
M:6/8
L:1/8
Q:3/8=120
K:A
“$”e/d/|cAe dBe|cAa ecA|Bfe dcB|AGF Eed|!
cAe dBe|cAa ecA|Bfe dcB|Ace A2||!
g|fga bge|^def eBg|fga bge|ecf B2g|!
fga bge|^def eBg|fga cf^d|egb e2″$”||!
K:D
A|fdA geA|fdA afd|Bgf fed|dcB Aag|!
fdA geA|fdA afd|Bge cBc|” D Capo”dfe d2|]

